; generated by Slic3r 1.1.7 on 2015-01-06 at 20:37:11

; perimeters extrusion width = 0.40mm
; infill extrusion width = 0.42mm
; solid infill extrusion width = 0.42mm
; top infill extrusion width = 0.42mm

G21 ; set units to millimeters
M107
M190 S70 ; wait for bed temperature to be reached
M104 S210 ; set temperature
G28 ; home all axes
G1 Z5 F5000 ; lift nozzle

M109 S210 ; wait for temperature to be reached
G90 ; use absolute coordinates
G92 E0
M82 ; use absolute distances for extrusion
G1 F1800.000 E-1.00000
G92 E0
G1 Z0.350 F7800.000
G1 X82.405 Y85.749 F7800.000
G1 E1.00000 F1800.000
G1 X84.158 Y84.267 E1.08918 F1080.000
G1 X86.311 Y83.472 E1.17837
G1 X87.500 Y83.364 E1.22476
G1 X112.500 Y83.364 E2.19614
G1 X114.761 Y83.761 E2.28532
G1 X116.751 Y84.905 E2.37451 F1080.000
G1 X118.233 Y86.658 E2.46369
G1 X119.028 Y88.811 E2.55288
G1 X119.136 Y90.000 E2.59926
G1 X119.136 Y110.000 E3.37637
G1 X118.739 Y112.261 E3.46555
G1 X117.595 Y114.251 E3.55474
G1 X115.842 Y115.733 E3.64392
G1 X113.689 Y116.528 E3.73311
G1 X112.500 Y116.636 E3.77950
G1 X87.500 Y116.636 E4.75087
G1 X85.239 Y116.239 E4.84006
G1 X83.249 Y115.095 E4.92924
G1 X81.767 Y113.342 E5.01843
G1 X80.972 Y111.189 E5.10761
G1 X80.864 Y110.000 E5.15400
G1 X80.864 Y90.000 E5.93110
G1 X81.261 Y87.739 E6.02029
G1 X82.375 Y85.801 E6.10714
G1 F1800.000 E5.10714
G92 E0
G1 X109.723 Y102.687 F7800.000
G1 E1.00000 F1800.000
G1 X109.369 Y102.945 E1.01702 F540.000
G1 X108.985 Y103.156 E1.03404
G1 X108.578 Y103.317 E1.05105
G1 X108.154 Y103.426 E1.06807
G1 X107.719 Y103.481 E1.08509
G1 X107.281 Y103.481 E1.10210
G1 X106.847 Y103.426 E1.11912
G1 X106.422 Y103.317 E1.13614
G1 X106.015 Y103.156 E1.15316
G1 X105.631 Y102.945 E1.17018
G1 X105.277 Y102.687 E1.18719
G1 X104.958 Y102.387 E1.20421
G1 X104.679 Y102.050 E1.22123
G1 X104.444 Y101.680 E1.23824
G1 X104.257 Y101.284 E1.25526
G1 X104.122 Y100.867 E1.27228
G1 X104.040 Y100.437 E1.28930
G1 X104.012 Y100.000 E1.30632
G1 X104.040 Y99.563 E1.32333
G1 X104.122 Y99.133 E1.34035
G1 X104.257 Y98.716 E1.35737
G1 X104.444 Y98.320 E1.37438
G1 X104.679 Y97.950 E1.39140
G1 X104.958 Y97.613 E1.40842
G1 X105.277 Y97.313 E1.42544
G1 X105.631 Y97.055 E1.44245
G1 X106.015 Y96.844 E1.45947
G1 X106.422 Y96.683 E1.47649
G1 X106.846 Y96.574 E1.49351
G1 X107.281 Y96.519 E1.51052
G1 X107.719 Y96.519 E1.52754
G1 X108.074 Y96.564 E1.54144
G1 X108.578 Y96.683 E1.56155 F540.000
G1 X108.985 Y96.844 E1.57857
G1 X109.369 Y97.055 E1.59559
G1 X109.723 Y97.313 E1.61261
G1 X110.042 Y97.613 E1.62963
G1 X110.321 Y97.950 E1.64664
G1 X110.556 Y98.320 E1.66366
G1 X110.743 Y98.716 E1.68068
G1 X110.878 Y99.133 E1.69770
G1 X110.960 Y99.563 E1.71472
G1 X110.988 Y100.000 E1.73173
G1 X110.960 Y100.437 E1.74875
G1 X110.878 Y100.867 E1.76577
G1 X110.743 Y101.284 E1.78278
G1 X110.556 Y101.680 E1.79980
G1 X110.321 Y102.050 E1.81682
G1 X110.042 Y102.387 E1.83383
G1 X109.767 Y102.646 E1.84852
G1 X109.317 Y102.196 F7800.000
G1 X109.027 Y102.407 E1.86243 F378.000
G1 X108.714 Y102.579 E1.87634
G1 X108.381 Y102.711 E1.89025
G1 X108.034 Y102.800 E1.90416
G1 X107.679 Y102.845 E1.91807
G1 X107.321 Y102.845 E1.93198
G1 X106.927 Y102.790 E1.94745
G1 X106.619 Y102.711 E1.95979
G1 X106.286 Y102.579 E1.97370
G1 X105.973 Y102.407 E1.98761
G1 X105.683 Y102.196 E2.00152
G1 X105.422 Y101.951 E2.01543
G1 X105.194 Y101.676 E2.02934
G1 X105.002 Y101.373 E2.04325
G1 X104.849 Y101.049 E2.05716
G1 X104.739 Y100.709 E2.07107
G1 X104.672 Y100.357 E2.08498
G1 X104.649 Y100.000 E2.09889
G1 X104.672 Y99.643 E2.11280
G1 X104.739 Y99.291 E2.12671
G1 X104.849 Y98.951 E2.14062
G1 X105.002 Y98.627 E2.15453
G1 X105.194 Y98.324 E2.16844
G1 X105.422 Y98.049 E2.18235
G1 X105.683 Y97.804 E2.19626
G1 X105.973 Y97.593 E2.21017
G1 X106.286 Y97.421 E2.22408
G1 X106.619 Y97.289 E2.23799
G1 X106.966 Y97.200 E2.25189
G1 X107.321 Y97.155 E2.26580
G1 X107.679 Y97.155 E2.27972 F378.000
G1 X108.034 Y97.200 E2.29362
G1 X108.381 Y97.289 E2.30753
G1 X108.714 Y97.421 E2.32144
G1 X109.027 Y97.593 E2.33536
G1 X109.317 Y97.804 E2.34926
G1 X109.578 Y98.049 E2.36317
G1 X109.806 Y98.324 E2.37708
G1 X109.998 Y98.627 E2.39099
G1 X110.151 Y98.951 E2.40490
G1 X110.261 Y99.291 E2.41881
G1 X110.328 Y99.643 E2.43272
G1 X110.351 Y100.000 E2.44663
G1 X110.328 Y100.357 E2.46054
G1 X110.261 Y100.709 E2.47445
G1 X110.151 Y101.049 E2.48836
G1 X109.998 Y101.373 E2.50227
G1 X109.806 Y101.676 E2.51618
G1 X109.578 Y101.951 E2.53009
G1 X109.361 Y102.155 E2.54167
G1 F1800.000 E1.54167
G92 E0
G1 X107.269 Y96.801 F7800.000
G1 X95.960 Y100.437 F7800.000
G1 E1.00000 F1800.000
G1 X95.853 Y100.944 E1.02012 F540.000
G1 X95.743 Y101.284 E1.03402
G1 X95.556 Y101.680 E1.05103
G1 X95.321 Y102.050 E1.06805
G1 X95.042 Y102.387 E1.08507
G1 X94.658 Y102.734 E1.10518
G1 X94.369 Y102.945 E1.11908
G1 X93.985 Y103.156 E1.13610
G1 X93.578 Y103.317 E1.15312
G1 X93.154 Y103.426 E1.17013
G1 X92.719 Y103.481 E1.18715
G1 X92.201 Y103.471 E1.20727
G1 X91.847 Y103.426 E1.22117
G1 X91.422 Y103.317 E1.23818
G1 X91.015 Y103.156 E1.25520
G1 X90.631 Y102.945 E1.27222
G1 X90.277 Y102.687 E1.28924
G1 X89.958 Y102.387 E1.30625
G1 X89.679 Y102.050 E1.32327
G1 X89.444 Y101.680 E1.34029
G1 X89.257 Y101.284 E1.35731
G1 X89.122 Y100.867 E1.37432
G1 X89.040 Y100.437 E1.39134
G1 X89.012 Y100.000 E1.40836
G1 X89.040 Y99.563 E1.42537
G1 X89.122 Y99.133 E1.44239
G1 X89.257 Y98.716 E1.45941
G1 X89.444 Y98.320 E1.47643
G1 X89.679 Y97.950 E1.49345
G1 X89.958 Y97.613 E1.51046
G1 X90.277 Y97.313 E1.52748
G1 X90.631 Y97.055 E1.54450
G1 X91.015 Y96.844 E1.56151
G1 X91.422 Y96.683 E1.57853
G1 X91.846 Y96.574 E1.59555
G1 X92.281 Y96.519 E1.61257
G1 X92.719 Y96.519 E1.62959
G1 X93.074 Y96.564 E1.64348
G1 X93.578 Y96.683 E1.66360 F540.000
G1 X93.985 Y96.844 E1.68062
G1 X94.369 Y97.055 E1.69764
G1 X94.723 Y97.313 E1.71465
G1 X94.984 Y97.558 E1.72855
G1 X95.321 Y97.950 E1.74867
G1 X95.556 Y98.320 E1.76568
G1 X95.743 Y98.716 E1.78270
G1 X95.878 Y99.133 E1.79972
G1 X95.960 Y99.563 E1.81674
G1 X95.988 Y100.000 E1.83375
G1 X95.964 Y100.377 E1.84844
G1 X95.328 Y100.357 F7800.000
G1 X95.249 Y100.747 E1.86390 F378.000
G1 X95.151 Y101.049 E1.87625
G1 X94.998 Y101.373 E1.89016
G1 X94.806 Y101.676 E1.90407
G1 X94.578 Y101.951 E1.91798
G1 X94.317 Y102.196 E1.93189
G1 X94.027 Y102.407 E1.94580
G1 X93.714 Y102.579 E1.95971
G1 X93.381 Y102.711 E1.97362
G1 X93.034 Y102.800 E1.98752
G1 X92.679 Y102.845 E2.00144
G1 X92.321 Y102.845 E2.01535
G1 X91.927 Y102.790 E2.03081
G1 X91.619 Y102.711 E2.04315
G1 X91.286 Y102.579 E2.05706
G1 X90.973 Y102.407 E2.07097
G1 X90.683 Y102.196 E2.08488
G1 X90.422 Y101.951 E2.09879
G1 X90.194 Y101.676 E2.11270
G1 X89.985 Y101.337 E2.12817
G1 X89.849 Y101.049 E2.14051
G1 X89.739 Y100.709 E2.15442
G1 X89.672 Y100.357 E2.16833
G1 X89.649 Y100.000 E2.18224
G1 X89.672 Y99.643 E2.19615
G1 X89.739 Y99.291 E2.21006
G1 X89.849 Y98.951 E2.22397
G1 X90.002 Y98.627 E2.23788
G1 X90.194 Y98.324 E2.25179
G1 X90.422 Y98.049 E2.26570
G1 X90.683 Y97.804 E2.27961
G1 X90.973 Y97.593 E2.29352
G1 X91.286 Y97.421 E2.30743
G1 X91.619 Y97.289 E2.32134
G1 X91.966 Y97.200 E2.33525
G1 X92.321 Y97.155 E2.34916
G1 X92.679 Y97.155 E2.36307 F378.000
G1 X93.034 Y97.200 E2.37698
G1 X93.381 Y97.289 E2.39089
G1 X93.714 Y97.421 E2.40480
G1 X94.027 Y97.593 E2.41871
G1 X94.284 Y97.780 E2.43105
G1 X94.578 Y98.049 E2.44652
G1 X94.806 Y98.324 E2.46043
G1 X94.998 Y98.627 E2.47434
G1 X95.151 Y98.951 E2.48825
G1 X95.261 Y99.291 E2.50216
G1 X95.328 Y99.643 E2.51607
G1 X95.351 Y100.000 E2.52998
G1 X95.332 Y100.297 E2.54155
G1 F1800.000 E1.54155
G92 E0
G1 X92.225 Y96.810 F7800.000
G1 X89.121 Y102.474 F7800.000
G1 E1.00000 F1800.000
G1 X89.871 Y103.178 E1.03996 F540.000
G1 X90.290 Y103.482 E1.06009
G1 X90.744 Y103.732 E1.08021
G1 X91.226 Y103.923 E1.10034
G1 X91.727 Y104.051 E1.12046
G1 X92.122 Y104.101 E1.13591
G1 X92.759 Y104.116 E1.16068
G1 X93.273 Y104.051 E1.18081
G1 X93.775 Y103.923 E1.20093
G1 X94.256 Y103.732 E1.22106
G1 X94.710 Y103.482 E1.24119
G1 X95.032 Y103.249 E1.25663
G1 X95.507 Y102.823 E1.28141
G1 X95.837 Y102.424 E1.30153
G1 X96.114 Y101.987 E1.32165
G1 X96.335 Y101.518 E1.34178
G1 X96.458 Y101.140 E1.35723
G1 X96.592 Y100.517 E1.38200
G1 X96.624 Y100.000 E1.40212
G1 X96.592 Y99.483 E1.42224
G1 X96.458 Y98.860 E1.44702
G1 X96.335 Y98.482 E1.46247
G1 X96.114 Y98.013 E1.48259
G1 X95.837 Y97.576 E1.50272
G1 X95.419 Y97.094 E1.52749
G1 X95.129 Y96.822 E1.54294
G1 X94.710 Y96.518 E1.56306
G1 X94.256 Y96.268 E1.58319
G1 X93.774 Y96.077 E1.60332
G1 X93.273 Y95.949 E1.62344
G1 X92.759 Y95.884 E1.64356
G1 X92.241 Y95.884 E1.66369
G1 X91.727 Y95.949 E1.68382
G1 X91.225 Y96.077 E1.70394
G1 X90.744 Y96.268 E1.72407
G1 X90.290 Y96.518 E1.74419
G1 X89.871 Y96.822 E1.76432
G1 X89.121 Y97.526 E1.80428
G1 X89.121 Y91.621 E2.03371
G1 X110.879 Y91.621 E2.87910
G1 X110.879 Y97.526 E3.10854
G1 X110.129 Y96.822 E3.14850
G1 X109.710 Y96.518 E3.16862
G1 X109.256 Y96.268 E3.18875
G1 X108.774 Y96.077 E3.20888
G1 X108.273 Y95.949 E3.22900
G1 X107.759 Y95.884 E3.24912
G1 X107.241 Y95.884 E3.26925
G1 X106.727 Y95.949 E3.28938
G1 X106.225 Y96.077 E3.30950
G1 X105.744 Y96.268 E3.32963
G1 X105.290 Y96.518 E3.34975
G1 X104.871 Y96.822 E3.36988
G1 X104.493 Y97.177 E3.39000
G1 X104.163 Y97.576 E3.41012
G1 X103.886 Y98.013 E3.43025
G1 X103.665 Y98.482 E3.45038
G1 X103.505 Y98.974 E3.47050
G1 X103.408 Y99.483 E3.49063
G1 X103.376 Y100.000 E3.51075
G1 X103.408 Y100.517 E3.53087
G1 X103.505 Y101.026 E3.55100
G1 X103.665 Y101.518 E3.57112
G1 X103.834 Y101.878 E3.58658
G1 X104.163 Y102.424 E3.61135
G1 X104.493 Y102.823 E3.63147
G1 X104.871 Y103.178 E3.65159
G1 X105.193 Y103.412 E3.66705
G1 X105.744 Y103.732 E3.69182
G1 X106.226 Y103.923 E3.71194
G1 X106.727 Y104.051 E3.73207
G1 X107.122 Y104.101 E3.74752
G1 X107.759 Y104.116 E3.77229
G1 X108.273 Y104.051 E3.79241
G1 X108.775 Y103.923 E3.81254
G1 X109.256 Y103.732 E3.83266
G1 X109.710 Y103.482 E3.85279
G1 X110.129 Y103.178 E3.87291
G1 X110.879 Y102.474 E3.91288
G1 X110.879 Y108.379 E4.14231
G1 X89.121 Y108.379 E4.98770
G1 X89.121 Y102.534 E5.21480
G1 X88.486 Y109.014 F7800.000
G1 X88.486 Y90.986 E5.91531 F540.000
G1 X111.514 Y90.986 E6.81010
G1 X111.514 Y109.014 E7.51061
G1 X88.546 Y109.014 E8.40306
G1 X87.850 Y109.650 F7800.000
G1 X87.850 Y90.350 E9.15296 F378.000
G1 X112.150 Y90.350 E10.09714
G1 X112.150 Y109.650 E10.84704
G1 X87.910 Y109.650 E11.78889
G1 X88.050 Y109.304 F7800.000
G1 X89.602 Y107.938 F7800.000
G1 X89.562 Y107.898 E11.79109 F1080.000
G1 X89.562 Y106.981 E11.82671
G1 X90.519 Y107.938 E11.87929
G1 X91.436 Y107.938 E11.91491
G1 X89.562 Y106.064 E12.01786
G1 X89.562 Y105.148 E12.05348
G1 X92.352 Y107.938 E12.20681
G1 X93.269 Y107.938 E12.24244
G1 X89.562 Y104.231 E12.44614
G1 X90.164 Y103.916 E12.47255
G1 X94.186 Y107.938 E12.69353
G1 X95.103 Y107.938 E12.72915
G1 X91.651 Y104.486 E12.91883
G1 X92.636 Y104.554 E12.95720
G1 X96.020 Y107.938 E13.14313
G1 X96.936 Y107.938 E13.17875
G1 X93.458 Y104.459 E13.36991
G1 X94.160 Y104.244 E13.39843
G1 X97.853 Y107.938 E13.60140
G1 X98.770 Y107.938 E13.63702
G1 X94.779 Y103.947 E13.85631
G1 X95.326 Y103.577 E13.88196
G1 X99.687 Y107.938 E14.12159
G1 X100.604 Y107.938 E14.15721
G1 X95.809 Y103.144 E14.42065
G1 X96.222 Y102.640 E14.44596
G1 X101.520 Y107.938 E14.73710
G1 X102.437 Y107.938 E14.77272
G1 X96.565 Y102.065 E15.09542
G1 X96.832 Y101.416 E15.12271
G1 X103.354 Y107.938 E15.48111
G1 X104.271 Y107.938 E15.51673
G1 X97.009 Y100.676 E15.91578
G1 X97.054 Y99.804 E15.94969
G1 X105.188 Y107.938 E16.39664
G1 X106.104 Y107.938 E16.43226
G1 X96.871 Y98.704 E16.93965
G1 X103.129 Y101.296 F7800.000
G1 X93.896 Y92.062 E17.44704 F1080.000
G1 X94.812 Y92.062 E17.48266
G1 X102.946 Y100.196 E17.92961
G1 X102.990 Y99.323 E17.96357
G1 X95.729 Y92.062 E18.36254
G1 X96.646 Y92.062 E18.39817
G1 X103.168 Y98.584 E18.75656
G1 X103.435 Y97.935 E18.78386
G1 X97.563 Y92.062 E19.10655
G1 X98.480 Y92.062 E19.14218
G1 X103.778 Y97.360 E19.43331
G1 X104.191 Y96.856 E19.45863
G1 X99.396 Y92.062 E19.72207
G1 X100.313 Y92.062 E19.75769
G1 X104.673 Y96.421 E19.99723
G1 X105.221 Y96.053 E20.02290
G1 X101.230 Y92.062 E20.24218
G1 X102.147 Y92.062 E20.27780
G1 X105.841 Y95.756 E20.48077
G1 X106.542 Y95.541 E20.50929
G1 X103.064 Y92.062 E20.70046
G1 X103.980 Y92.062 E20.73608
G1 X107.361 Y95.443 E20.92185
G1 X108.349 Y95.514 E20.96034
G1 X104.897 Y92.062 E21.15001
G1 X105.814 Y92.062 E21.18564
G1 X109.836 Y96.084 E21.40662
G1 X110.438 Y95.769 E21.43302
G1 X106.731 Y92.062 E21.63673
G1 X107.648 Y92.062 E21.67235
G1 X110.438 Y94.852 E21.82568
G1 X110.438 Y93.936 E21.86131
G1 X108.564 Y92.062 E21.96426
G1 X109.481 Y92.062 E21.99988
G1 X110.438 Y93.019 E22.05246
G1 X110.438 Y92.102 E22.08808
G1 X110.398 Y92.062 E22.09028
G1 X110.136 Y103.718 F7800.000
G1 X110.438 Y104.020 E22.10689 F1080.000
G1 X110.438 Y104.937 E22.14251
G1 X109.566 Y104.065 E22.19045
G1 X108.922 Y104.338 E22.21761
G1 X110.438 Y105.854 E22.30090
G1 X110.438 Y106.771 E22.33652
G1 X108.175 Y104.508 E22.46086
G1 X107.297 Y104.546 E22.49503
G1 X110.438 Y107.688 E22.66764
G1 X109.772 Y107.938 E22.69530
G1 X106.206 Y104.373 E22.89121
G1 X108.855 Y107.938 F7800.000
G1 X92.979 Y92.062 E23.76358 F1080.000
G1 X92.062 Y92.062 E23.79920
G1 X107.938 Y107.938 E24.67157
G1 X107.021 Y107.938 E24.70719
G1 X91.145 Y92.062 E25.57956
G1 X90.228 Y92.062 E25.61519
G1 X93.794 Y95.627 E25.81109
G1 X92.693 Y95.443 E25.85447
G1 X89.562 Y92.312 E26.02649
G1 X89.562 Y93.229 E26.06211
G1 X91.825 Y95.492 E26.18645
G1 X91.078 Y95.662 E26.21621
G1 X89.562 Y94.146 E26.29950
G1 X89.562 Y95.063 E26.33512
G1 X90.434 Y95.935 E26.38306
G1 X89.864 Y96.282 E26.40898
G1 X89.562 Y95.980 E26.42560
M106 S255
G1 F1800.000 E25.42560
G92 E0
G1 Z0.650 F7800.000
G1 X104.431 Y101.687 F7800.000
G1 E1.00000 F1800.000
G1 X104.244 Y101.289 E1.00922 F1618.614
G1 X104.108 Y100.871 E1.01843
G1 X104.026 Y100.439 E1.02765
G1 X103.998 Y100.000 E1.03687
G1 X104.026 Y99.561 E1.04609
G1 X104.108 Y99.129 E1.05530
G1 X104.244 Y98.711 E1.06452
G1 X104.431 Y98.313 E1.07374
G1 X104.667 Y97.942 E1.08296
G1 X104.947 Y97.603 E1.09217
G1 X105.268 Y97.302 E1.10139
G1 X105.624 Y97.043 E1.11061
G1 X106.009 Y96.831 E1.11982
G1 X106.418 Y96.669 E1.12904
G1 X106.844 Y96.560 E1.13826
G1 X107.280 Y96.505 E1.14748
G1 X107.720 Y96.505 E1.15669
G1 X108.042 Y96.546 E1.16350
G1 X108.582 Y96.669 E1.17511 F1618.614
G1 X108.991 Y96.831 E1.18433
G1 X109.376 Y97.043 E1.19355
G1 X109.732 Y97.302 E1.20276
G1 X110.053 Y97.603 E1.21198
G1 X110.333 Y97.942 E1.22120
G1 X110.569 Y98.313 E1.23042
G1 X110.756 Y98.711 E1.23963
G1 X110.892 Y99.129 E1.24885
G1 X110.974 Y99.561 E1.25807
G1 X111.002 Y100.000 E1.26729
G1 X110.974 Y100.439 E1.27650
G1 X110.892 Y100.871 E1.28572
G1 X110.756 Y101.289 E1.29494
G1 X110.569 Y101.687 E1.30415
G1 X110.333 Y102.058 E1.31337
G1 X110.053 Y102.397 E1.32259
G1 X109.732 Y102.698 E1.33181
G1 X109.376 Y102.957 E1.34102
G1 X108.991 Y103.169 E1.35024
G1 X108.582 Y103.331 E1.35946
G1 X108.156 Y103.440 E1.36867
G1 X107.720 Y103.495 E1.37789
G1 X107.280 Y103.495 E1.38711
G1 X106.844 Y103.440 E1.39633
G1 X106.418 Y103.331 E1.40554
G1 X106.009 Y103.169 E1.41476
G1 X105.624 Y102.957 E1.42398
G1 X105.268 Y102.698 E1.43320
G1 X104.947 Y102.397 E1.44241
G1 X104.667 Y102.058 E1.45163
G1 X104.463 Y101.738 E1.45959
G1 X104.782 Y101.494 F7800.000
G1 X104.617 Y101.142 E1.46775 F1618.614
G1 X104.496 Y100.771 E1.47591
G1 X104.423 Y100.389 E1.48408
G1 X104.399 Y100.000 E1.49224
G1 X104.423 Y99.611 E1.50040
G1 X104.496 Y99.229 E1.50856
G1 X104.617 Y98.858 E1.51673
G1 X104.782 Y98.506 E1.52489
G1 X104.991 Y98.177 E1.53305
G1 X105.239 Y97.877 E1.54121
G1 X105.523 Y97.611 E1.54938
G1 X105.838 Y97.382 E1.55754
G1 X106.180 Y97.194 E1.56570
G1 X106.542 Y97.051 E1.57386
G1 X106.919 Y96.954 E1.58203
G1 X107.305 Y96.905 E1.59019
G1 X107.695 Y96.905 E1.59835 F1618.614
G1 X108.081 Y96.954 E1.60651
G1 X108.458 Y97.051 E1.61467
G1 X108.820 Y97.194 E1.62284
G1 X109.162 Y97.382 E1.63100
G1 X109.477 Y97.610 E1.63916
G1 X109.761 Y97.877 E1.64732
G1 X110.009 Y98.177 E1.65549
G1 X110.218 Y98.506 E1.66365
G1 X110.383 Y98.858 E1.67181
G1 X110.504 Y99.229 E1.67997
G1 X110.577 Y99.611 E1.68814
